!!!COM: Beethoven
!!!OTL: Six Variations on an Original Theme
!!!Variation: Variation 6 c
**function	**harm	**kern	**kern
*	*	*clefF4	*clefG2
*	*	*k[f#c#]	*k[f#c#]
*M3/4	*M3/4	*M3/4	*M3/4
*D:	*D:	*D:	*D:
4T	4i	8DD'L 8D'	4r
.	.	8EE'J 8E'	.
=113	=113	=113	=113
2T	2i	8FF'L 8F'	8d'L 8dd'
.	.	8DD'J 8D'	8e'J 8ee'
.	.	4r	8f'L 8ff'
.	.	.	8d'J 8dd'
4T	4ii/-III[iv]	8GG'L 8G'	4r
.	.	8AA'J 8A'	.
=114	=114	=114	=114
2T	2ii/-III[iv]	8BB-'L 8B-'	8g'L 8gg'
.	.	8GG'J 8G'	8a'J 8aa'
.	.	4r	8b-'L 8bb-'
.	.	.	8g'J 8gg'
4T	4V/-III	8CC'L 8C'	4r
.	.	8DD'J 8D'	.
=115	=115	=115	=115
2T	2V/-III	8EE'L 8E'	8c'L 8cc'
.	.	8CC'J 8C'	8d'J 8dd'
.	.	4r	8e'L 8ee'
.	.	.	8c'J 8cc'
4T	4I/-III	8FF'L 8F'	4r
.	.	8GG'J 8G'	.
=116	=116	=116	=116
2.T	2.I/-III	8AA'L 8A'	8f'L 8ff'
.	.	8FF'J 8F'	8g'J 8gg'
.	.	4r	8a'L 8aa'
.	.	.	8f'J 8ff'
.	.	4r	8a'L
.	.	.	8cc'J
=117	=117	=117	=117
2.T	2.V7/-III	4C 4G 4B-	8b-'L
.	.	.	8a'J
.	.	4C 4G 4B-	8b-'L
.	.	.	8g'J
.	.	4C 4G 4B-	8cc'L
.	.	.	8b-'J
=118	=118	=118	=118
2.T	2.Ic/-III	4C 4F 4A	8a'L
.	.	.	8cc'J
.	.	4C 4F 4A	8ff'L
.	.	.	8cc'J
.	.	4C 4F 4A	8ff'L
.	.	.	8aa'J
=119	=119	=119	=119
2.T	2.V7/-III	4C 4G 4B-	8ee'L
.	.	.	8gg'J
.	.	4C 4G 4B-	8ccc'L
.	.	.	8bb-'J
.	.	4C 4G 4B-	8aa'L
.	.	.	8gg'J
=120	=120	=120	=120
2.T	2.Ic/-III	4C 4F 4A	8ff'L
.	.	.	8aa'J
.	.	4C 4F 4A	8ff'L
.	.	.	8cc'J
.	.	4C 4F 4A	8a'L
.	.	.	8cc'J
=121	=121	=121	=121
2.T	2.V7/-III	4C 4G 4B-	8b-'L
.	.	.	8a'J
.	.	4C 4G 4B-	8b-'L
.	.	.	8g'J
.	.	4C 4G 4B-	8cc'L
.	.	.	8b-'J
=122	=122	=122	=122
2.T	2.Ic/-III	4C 4F 4A	8a'L
.	.	.	8cc'J
.	.	4C 4F 4A	8ff'L
.	.	.	8cc'J
.	.	4C 4F 4A	8ff'L
.	.	.	8aa'J
=123	=123	=123	=123
2.T	2.V7/-III	4C 4G 4B-	8ee'L
.	.	.	8gg'J
.	.	4C 4G 4B-	8ccc'L
.	.	.	8bb-'J
.	.	4C 4G 4B-	8aa'L
.	.	.	8gg'J
=124	=124	=124	=124
2.T	2.i/-III	16FLL	4ff
.	.	16A-	.
.	.	16F	.
.	.	16A-JJ	.
.	.	16FLL	4r
.	.	16A-	.
.	.	16F	.
.	.	16A-JJ	.
.	.	16FLL	8f
.	.	16A-	.
.	.	16F	16r
.	.	16A-JJ	16g
=125	=125	=125	=125
2.T	2.-VI/-III	16D-LL	(4a-
.	.	16F	.
.	.	16D-	.
.	.	16FJJ	.
.	.	16D-LL	4f)
.	.	16F	.
.	.	16D-	.
.	.	16FJJ	.
.	.	16D-LL	8b-
.	.	16F	.
.	.	16D-	16r
.	.	16FJJ	16cc
=126	=126	=126	=126
2.T	2.iv/-III	16BB-LL	(4dd-
.	.	16D-	.
.	.	16BB-	.
.	.	16D-JJ	.
.	.	16BB-LL	4b-)
.	.	16D-	.
.	.	16BB-	.
.	.	16D-JJ	.
.	.	16BB-LL	8b-
.	.	16D-	.
.	.	16BB-	16r
.	.	16D-JJ	16cc-
=127	=127	=127	=127
2T	2N/-III	16GG-LL	(4dd-
.	.	16BB-	.
.	.	16GG-	.
.	.	16BB-JJ	.
.	.	16GG-LL	4b-)
.	.	16BB-	.
.	.	16GG-	.
.	.	16BB-JJ	.
4T	4V/vi	16FF#LL	8b
.	.	16AA#	.
.	.	16FF#	16r
.	.	16AA#JJ	16cc#
=128	=128	=128	=128
2.T	2.vi	16BBLL	(4dd
.	.	16D	.
.	.	16BB	.
.	.	16DJJ	.
.	.	16BBLL	4b)
.	.	16D	.
.	.	16BB	.
.	.	16DJJ	.
.	.	16BBLL	8cc#
.	.	16D	.
.	.	16BB	16r
.	.	16DJJ	16dd
=129	=129	=129	=129
2.T	2.V	16AALL	(4ee
.	.	16C#	.
.	.	16AA	.
.	.	16C#JJ	.
.	.	16AALL	4cc#)
.	.	16C#	.
.	.	16AA	.
.	.	16C#JJ	.
.	.	16AALL	8ee
.	.	16C#	.
.	.	16AA	16r
.	.	16C#JJ	16ff#
=130	=130	=130	=130
2.T	2.V7	16AALL	(4gg
.	.	16E	.
.	.	16AA	.
.	.	16EJJ	.
.	.	16AALL	4ee)
.	.	16E	.
.	.	16AA	.
.	.	16EJJ	.
.	.	16AALL	8ee'L 8ccc#'
.	.	16E	.
.	.	16AA	8ff#'J 8ddd'
.	.	16EJJ	.
=131	=131	=131	=131
2.T	2.V7	16AALL	8gg'L 8eee'
.	.	16A	.
.	.	16AA	8ff#'J 8ddd'
.	.	16AJJ	.
.	.	16AALL	8ee'L 8ccc#'
.	.	16A	.
.	.	16AA	8ff#'J 8ddd'
.	.	16AJJ	.
.	.	16AALL	8gg'L 8eee'
.	.	16A	.
.	.	16AA	8ff#'J 8ddd'
.	.	16AJJ	.
=132	=132	=132	=132
2.T	2.V7	16AALL	8ee'L 8ccc#'
.	.	16A	.
.	.	16AA	8ff#'J 8ddd'
.	.	16AJJ	.
.	.	16AALL	8gg'L 8eee'
.	.	16A	.
.	.	16AA	8ff#'J 8ddd'
.	.	16AJJ	.
.	.	16AALL	8ee'L 8ccc#'
.	.	16A	.
.	.	16AA	8ff#'J 8ddd'
.	.	16AJJ	.
=133	=133	=133	=133
4.T	4.V7	16AALL	8ee'L 8ccc#'
.	.	16A	.
.	.	16AA	8ff#'J 8ddd'
.	.	16AJJ	.
.	.	16AALL	8gg'L 8eee'
.	.	16A	.
*-	*-	*-	*-
